X: 100533
T: Julia Clifford's
S: Treoir
Z: B.Black
M: 6/8
L: 1/8
R: jig
K: D
BAF E3 | FEF DFA | BAF DFA | B2 A Bcd |
BAF EDE | FEF DFA | d2 f edc | B2 A Bcd :|
dcd fed | cBc ecA | dcd fed | f2 e fga |
d3 fed | cBc fed | ded Bc/d/c | B2 A Bcd :|
